assets/Face with peeking eye/Flat/face_with_peeking_eye_flat.svg

<svg width="32" height="32" viewBox="0 0 32 32" fill="none" xmlns="http://www.w3.org/2000/svg">
<path d="M15.9991 29.9978C25.3336 29.9978 29.998 23.7303 29.998 15.9989C29.998 8.26751 25.3336 2 15.9991 2C6.66468 2 2.00024 8.26751 2.00024 15.9989C2.00024 23.7303 6.66468 29.9978 15.9991 29.9978Z" fill="#FFB02E"/>
<path d="M22 20C19.2386 20 17 17.7614 17 15C17 12.2386 19.2386 10 22 10C24.7614 10 27 12.2386 27 15C27 17.7614 24.7614 20 22 20Z" fill="white"/>
<path d="M21.5 19C20.1193 19 19 17.8807 19 16.5C19 15.1193 20.1193 14 21.5 14C22.8807 14 24 15.1193 24 16.5C24 17.8807 22.8807 19 21.5 19Z" fill="#402A32"/>
<path d="M10.7753 6.99958C11.1892 6.98563 11.5135 6.63872 11.4996 6.22474C11.4856 5.81076 11.1387 5.48648 10.7247 5.50043C7.67358 5.60328 6 8.16323 6 10.25C6 10.6642 6.33579 11 6.75 11C7.16421 11 7.5 10.6642 7.5 10.25C7.5 8.83679 8.66105 7.07085 10.7753 6.99958Z" fill="#402A32"/>
<path d="M21.7247 6.99958C21.3108 6.98563 20.9865 6.63872 21.0004 6.22474C21.0144 5.81076 21.3613 5.48648 21.7753 5.50043C24.8264 5.60328 26.5 8.16323 26.5 10.25C26.5 10.6642 26.1642 11 25.75 11C25.3358 11 25 10.6642 25 10.25C25 8.83679 23.8389 7.07085 21.7247 6.99958Z" fill="#402A32"/>
<path d="M16 27C14.3482 27 13 25.6518 13 24C13 22.3482 14.3482 21 16 21C17.6518 21 19 22.3482 19 24C19 25.6518 17.6518 27 16 27Z" fill="#BB1D80"/>
<path d="M22.9941 11.0118C22.1689 11.0849 21.5593 11.8132 21.6324 12.6384L22.0264 17.084L21.9972 17.0967L18.799 15.2502C18.0816 14.836 17.1642 15.0818 16.75 15.7993C16.3358 16.5167 16.5816 17.4341 17.299 17.8483L17.378 17.8939C16.9225 17.9466 16.4969 18.2066 16.25 18.6342C15.8358 19.3517 16.0816 20.2691 16.799 20.6833L19.2715 22.1108C19.9113 22.5547 20.2665 23.0954 20.6273 23.6444C21.0649 24.3104 21.5105 24.9886 22.4817 25.5212C24.4844 26.384 26.5081 26.0289 27.7349 24.802C28.6453 23.8917 28.9389 22.5869 29.2079 21.3917C29.3396 20.8067 29.4654 20.248 29.6546 19.7745L30.807 17.0593C31.1764 16.4029 30.9307 15.5542 30.2595 15.169C29.592 14.7858 28.7571 15.0069 28.3946 15.6628L27.25 17.4873V13.0002C27.25 12.1718 26.5784 11.5002 25.75 11.5002C25.2683 11.5002 24.8396 11.7272 24.5651 12.0802C24.3673 11.4089 23.718 10.9477 22.9941 11.0118Z" fill="#FF822D"/>
<path d="M6.92044 12.7997C7.28121 12.1629 8.09588 11.9215 8.74006 12.2606C9.25368 12.531 9.50383 13.0888 9.40125 13.6266L9.76929 12.9769C10.1468 12.3104 10.9994 12.0578 11.6735 12.4127C12.3476 12.7675 12.5881 13.5955 12.2105 14.262L12.1113 14.4371C12.412 14.3834 12.7307 14.4245 13.0171 14.5753C13.6912 14.9301 13.9316 15.7581 13.5541 16.4246L13.2311 16.9948C13.5412 16.9449 13.8681 16.9968 14.1554 17.1645C14.8151 17.5497 15.0108 18.3961 14.5892 19.0412L10.9949 24.5415C10.4684 25.4848 9.62053 26.2597 8.53161 26.6853C6.05632 27.653 3.27266 26.4496 2.31414 23.9975C2.02109 23.2479 1.93257 22.4683 2.02164 21.7195C2.0188 21.6735 2.01811 21.6272 2.01962 21.5807L2.10197 19.0495L1.79771 16.0141C1.72259 15.2646 2.28814 14.5858 3.05744 14.5021C3.82261 14.4189 4.49874 14.9564 4.56763 15.7025L4.66692 16.7779L6.92044 12.7997Z" fill="#FF822D"/>
</svg>

<svg xmlns="http://www.w3.org/2000/svg" width="32" height="32" fill="none"><path fill="#FFB02E" d="M16 29.998c9.334 0 13.998-6.268 13.998-14C29.998 8.269 25.334 2 15.999 2 6.665 2 2 8.268 2 15.999c0 7.731 4.665 13.999 14 13.999Z"/><path fill="#fff" d="M22 20a5 5 0 1 1 0-10 5 5 0 0 1 0 10Z"/><path fill="#402A32" d="M21.5 19a2.5 2.5 0 1 1 0-5 2.5 2.5 0 0 1 0 5ZM10.775 7a.75.75 0 0 0-.05-1.5C7.674 5.603 6 8.163 6 10.25a.75.75 0 0 0 1.5 0c0-1.413 1.161-3.18 3.275-3.25ZM21.725 7a.75.75 0 0 1 .05-1.5c3.051.103 4.725 2.663 4.725 4.75a.75.75 0 0 1-1.5 0c0-1.413-1.161-3.18-3.275-3.25Z"/><path fill="#BB1D80" d="M16 27c-1.652 0-3-1.348-3-3s1.348-3 3-3 3 1.348 3 3-1.348 3-3 3Z"/><path fill="#FF822D" d="M22.994 11.012a1.5 1.5 0 0 0-1.362 1.626l.394 4.446-.029.013L18.8 15.25a1.5 1.5 0 1 0-1.5 2.598l.079.046a1.5 1.5 0 0 0-.579 2.79l2.473 1.427c.64.444.995.984 1.355 1.533.438.666.884 1.345 1.855 1.877 2.002.863 4.026.508 5.253-.719.91-.91 1.204-2.215 1.473-3.41.132-.585.257-1.144.447-1.617l1.152-2.716c.37-.656.124-1.505-.547-1.89-.668-.383-1.503-.162-1.865.494l-1.145 1.824V13a1.5 1.5 0 0 0-2.685-.92 1.5 1.5 0 0 0-1.57-1.068ZM6.92 12.8a1.372 1.372 0 0 1 1.82-.54c.514.271.764.829.661 1.367l.368-.65a1.436 1.436 0 0 1 1.905-.564c.674.354.914 1.182.537 1.849l-.1.175c.301-.054.62-.012.906.138.674.355.915 1.183.537 1.85l-.323.57c.31-.05.637.002.924.17a1.32 1.32 0 0 1 .434 1.876l-3.594 5.5a4.82 4.82 0 0 1-2.463 2.144c-2.476.968-5.26-.235-6.218-2.688a4.71 4.71 0 0 1-.292-2.277 1.475 1.475 0 0 1-.002-.14l.082-2.53-.304-3.036c-.075-.75.49-1.428 1.26-1.512.765-.083 1.44.454 1.51 1.2l.099 1.076L6.92 12.8Z"/></svg>
